X:481
T:Bicycle Pump Polka
Z:Jack Campin, http://www.campin.me.uk/
F:Jack Campin's Nine-Note Tunebook
% last edit 27-02-2013
M:2/4
L:1/16
Q:1/4=140
N:when played on the melodeon, bars 2, 4, 6 and 8 have four
N:wheezy air-pumping noises rather than pitched notes
K:G
d2BG D2G2|.F2.F2.F2.F2|c2AF D2F2|.G2.G2.G2.G2 |
d2BG D2G2|.F2.F2.F2.F2|c2AF D2F2|.G2.G2.G2.G2:|
d2BG DGBd| c2AA  A2A2 |c2AF E2F2| G2B2  d4    |
d2BG DGBd| c2AA  A2A2 |c2AF E2F2| G2G2  G4   :|

